X: 3
T: A Trip To The Cottage
R: jig
M: 6/8
L: 1/8
K: Gmaj
B/c/|dcd BGB|cBc AFA|DGG FAA|GBB ABc|
dcd BGB|cBc AFA|DGG FGA|BGF G2:|
|:d|gfe d2 d|edc Bcd|ecA dBG|FAG FED|
gfe d2 d|edc Bcd|efg eag|fdd d2:|


Tune 833	Setting 27490

